Numix/32/mimetypes/virtualbox-vdi.svg

<?xml version="1.0" encoding="UTF-8" standalone="no"?>
<svg
   xmlns:dc="http://purl.org/dc/elements/1.1/"
   xmlns:cc="http://creativecommons.org/ns#"
   xmlns:rdf="http://www.w3.org/1999/02/22-rdf-syntax-ns#"
   xmlns:svg="http://www.w3.org/2000/svg"
   xmlns="http://www.w3.org/2000/svg"
   xmlns:sodipodi="http://sodipodi.sourceforge.net/DTD/sodipodi-0.dtd"
   xmlns:inkscape="http://www.inkscape.org/namespaces/inkscape"
   width="32"
   height="32"
   viewBox="0 0 32 32"
   id="svg2"
   version="1.1"
   inkscape:version="0.91 r13725"
   sodipodi:docname="application-vbox-5_32-1P-.svg">
  <metadata
     id="metadata26">
    <rdf:RDF>
      <cc:Work
         rdf:about="">
        <dc:format>image/svg+xml</dc:format>
        <dc:type
           rdf:resource="http://purl.org/dc/dcmitype/StillImage" />
        <dc:title></dc:title>
      </cc:Work>
    </rdf:RDF>
  </metadata>
  <defs
     id="defs24" />
  <sodipodi:namedview
     pagecolor="#ffffff"
     bordercolor="#666666"
     borderopacity="1"
     objecttolerance="10"
     gridtolerance="10"
     guidetolerance="10"
     inkscape:pageopacity="0"
     inkscape:pageshadow="2"
     inkscape:window-width="1920"
     inkscape:window-height="1013"
     id="namedview22"
     showgrid="false"
     inkscape:zoom="1"
     inkscape:cx="17.725038"
     inkscape:cy="3.1839603"
     inkscape:window-x="0"
     inkscape:window-y="27"
     inkscape:window-maximized="1"
     inkscape:current-layer="svg2">
    <inkscape:grid
       type="xygrid"
       id="grid3100" />
  </sodipodi:namedview>
  <path
     style="fill:#f05617;fill-opacity:1"
     d="M 5.335888,2.97e-4 C 4.648414,3.12e-4 4,0.676788 4,1.394031 L 4,30.606268 C 4,31.282757 4.687474,32 5.335888,32 l 21.327331,0 c 0.648414,0 1.335888,-0.717243 1.335888,-1.393732 L 28,8.9999995 19,0 z"
     id="path4-1"
     inkscape:connector-curvature="0"
     sodipodi:nodetypes="ssssssccs" />
  <path
     style="fill:#000000;fill-opacity:0.19599998"
     d="m 20.999999,8.9999995 7,7.0000005 0,-7.0000005 z"
     id="path6-4"
     inkscape:connector-curvature="0"
     sodipodi:nodetypes="cccc" />
  <path
     style="fill:#ffffff;fill-opacity:0.39200003"
     d="m 19.000305,2.97e-4 8.991594,8.9997025 -7.613262,0 c -0.672951,0 -1.378332,-0.7134896 -1.378332,-1.3864402 z"
     id="path8-6"
     inkscape:connector-curvature="0"
     sodipodi:nodetypes="ccssc" />
  <path
     style="fill:#000000;fill-opacity:0.19599998"
     d="m 4,24 0,6.667969 C 4,31.316407 4.6875,32 5.3320311,32 L 26.667969,32 C 27.3125,32 28,31.316407 28,30.667969 L 28,24 z"
     id="path3011"
     inkscape:connector-curvature="0" />
  <path
     style="fill:#ffffff;fill-opacity:1;fill-rule:nonzero;stroke:none"
     d="m 15.5,9.158 -2,8.579364 L 12.27595,14 10,14 l 0,1 1.644,0 1.956818,5.993934 0.228656,0.0061 1.979976,-8.588287 1.578291,5.193171 c 0.421804,-1.60731 0.84982,-3.215011 1.274023,-4.822322 0.93781,2.165269 -0.01791,0.04248 0.938499,2.217404 L 22,15 22,14 20.260891,14 18.660568,9 c -0.424205,1.595812 -0.851036,3.190921 -1.275239,4.784313 z"
     id="path55"
     inkscape:connector-curvature="0"
     sodipodi:nodetypes="cccccccccccccccccc" />
  <g
     id="g4158">
    <path
       d="M 10.821054,31 Q 10.568421,30.331179 10.284211,29.487883 10,28.644588 9.7473697,27.810986 9.4947364,26.96769 9.2947371,26.221325 9.0947367,25.474959 9,25 l 1.368422,0 q 0.06317,0.465266 0.189472,1.085622 0.126318,0.610662 0.273685,1.26979 0.157897,0.649434 0.326318,1.289176 0.178945,0.630049 0.347366,1.134087 0.168421,-0.494345 0.336843,-1.124394 0.168422,-0.63974 0.31579,-1.289176 0.147366,-0.659127 0.273683,-1.279483 Q 12.557896,25.465266 12.642107,25 l 1.357894,0 q -0.126315,0.581583 -0.31579,1.298869 -0.178948,0.717286 -0.421053,1.512117 -0.231579,0.785136 -0.515789,1.609047 Q 12.463159,30.234249 12.157894,31 l -1.33684,0 z"
       style="font-style:normal;font-variant:normal;font-weight:bold;font-stretch:normal;font-size:9.0232296px;line-height:125%;font-family:'Ubuntu Mono';-inkscape-font-specification:'Ubuntu Mono, Bold';text-align:start;letter-spacing:0px;word-spacing:0px;writing-mode:lr-tb;text-anchor:start;fill:#ffffff;fill-opacity:1;stroke:none;stroke-width:1px;stroke-linecap:butt;stroke-linejoin:miter;stroke-opacity:1"
       id="path4141"
       inkscape:connector-curvature="0" />
    <path
       d="m 16.174224,29.977915 q 0.04774,0.0094 0.105006,0.0094 0.05728,0 0.105017,0 0.400955,0 0.668257,-0.151419 0.276849,-0.15142 0.43914,-0.416404 0.171837,-0.264985 0.238664,-0.624606 0.07638,-0.369085 0.07638,-0.804417 0,-0.378548 -0.05728,-0.73817 -0.05728,-0.359622 -0.200477,-0.634069 -0.143199,-0.274448 -0.391407,-0.435332 -0.24821,-0.170346 -0.639618,-0.170346 -0.07638,0 -0.171838,0.0094 -0.09546,0 -0.171837,0.01893 l 0,3.936908 z m 2.825775,-1.987381 q 0,0.81388 -0.210024,1.391167 -0.200478,0.567824 -0.563246,0.927444 -0.362769,0.359622 -0.868735,0.529969 -0.49642,0.160883 -1.097852,0.160883 -0.315035,0 -0.620525,-0.03785 Q 15.343676,30.933757 15,30.858052 l 0,-5.716088 q 0.400955,-0.08517 0.754177,-0.113565 0.353221,-0.02839 0.658709,-0.02839 0.582339,0 1.059666,0.170347 0.486875,0.170347 0.821003,0.539432 0.334128,0.359621 0.515513,0.927445 0.190931,0.55836 0.190931,1.353312 z"
       style="font-style:normal;font-variant:normal;font-weight:bold;font-stretch:normal;font-size:9.0232296px;line-height:125%;font-family:'Ubuntu Mono';-inkscape-font-specification:'Ubuntu Mono, Bold';text-align:start;letter-spacing:0px;word-spacing:0px;writing-mode:lr-tb;text-anchor:start;fill:#ffffff;fill-opacity:1;stroke:none;stroke-width:1px;stroke-linecap:butt;stroke-linejoin:miter;stroke-opacity:1"
       id="path4143"
       inkscape:connector-curvature="0" />
    <path
       d="m 20,31 0,-0.988691 1.030534,0 0,-4.022617 -1.030534,0 L 20,25 l 3,0 0,0.988692 -1.0229,0 0,4.022617 1.0229,0 L 23,31 20,31 Z"
       style="font-style:normal;font-variant:normal;font-weight:bold;font-stretch:normal;font-size:9.0232296px;line-height:125%;font-family:'Ubuntu Mono';-inkscape-font-specification:'Ubuntu Mono, Bold';text-align:start;letter-spacing:0px;word-spacing:0px;writing-mode:lr-tb;text-anchor:start;fill:#ffffff;fill-opacity:1;stroke:none;stroke-width:1px;stroke-linecap:butt;stroke-linejoin:miter;stroke-opacity:1"
       id="path4145"
       inkscape:connector-curvature="0" />
  </g>
</svg>

<svg xmlns="http://www.w3.org/2000/svg" viewBox="0 0 32 32">
 <path d="m 5.336 0 c -0.687 0 -1.336 0.676 -1.336 1.394 l 0 29.21 c 0 0.676 0.687 1.394 1.336 1.394 l 21.327 0 c 0.648 0 1.336 -0.717 1.336 -1.394 l 0.001 -21.606 -9 -9 z" style="fill:#f05617;fill-opacity:1"/>
 <path d="m 21 9 7 7 0 -7 z" style="fill:#000;fill-opacity:0.196"/>
 <path d="m 19 0 8.992 9 -7.613 0 c -0.673 0 -1.378 -0.713 -1.378 -1.386 z" style="fill:#fff;fill-opacity:0.392"/>
 <path d="m 4 24 0 6.668 c 0 0.648 0.688 1.332 1.332 1.332 l 21.336 0 c 0.645 0 1.332 -0.684 1.332 -1.332 l 0 -6.668 z" style="fill:#000;fill-opacity:0.196"/>
 <path d="m 15.5 9.158 -2 8.579 l -1.224 -3.737 -2.276 0 l 0 1 1.644 0 1.957 5.994 0.229 0.006 1.98 -8.588 1.578 5.193 c 0.422 -1.607 0.85 -3.215 1.274 -4.822 0.938 2.165 -0.018 0.042 0.938 2.217 l 2.4 0 0 -1 -1.739 0 -1.6 -5 c -0.424 1.596 -0.851 3.191 -1.275 4.784 z" style="fill:#fff;fill-opacity:1;stroke:none;fill-rule:nonzero"/>
 <g>
  <path d="m 10.821 31 q -0.253 -0.669 -0.537 -1.512 -0.284 -0.843 -0.537 -1.677 -0.253 -0.843 -0.453 -1.59 -0.2 -0.746 -0.295 -1.221 l 1.368 0 q 0.063 0.465 0.189 1.086 0.126 0.611 0.274 1.27 0.158 0.649 0.326 1.289 0.179 0.63 0.347 1.134 0.168 -0.494 0.337 -1.124 0.168 -0.64 0.316 -1.289 0.147 -0.659 0.274 -1.279 q 0.126 -0.62 0.211 -1.086 l 1.358 0 q -0.126 0.582 -0.316 1.299 -0.179 0.717 -0.421 1.512 -0.232 0.785 -0.516 1.609 q -0.284 0.814 -0.589 1.58 l -1.337 0 z" style="fill:#fff;fill-opacity:1;stroke:none"/>
  <path d="m 16.17 29.978 q 0.048 0.009 0.105 0.009 0.057 0 0.105 0 0.401 0 0.668 -0.151 0.277 -0.151 0.439 -0.416 0.172 -0.265 0.239 -0.625 0.076 -0.369 0.076 -0.804 0 -0.379 -0.057 -0.738 -0.057 -0.36 -0.2 -0.634 -0.143 -0.274 -0.391 -0.435 -0.248 -0.17 -0.64 -0.17 -0.076 0 -0.172 0.009 -0.095 0 -0.172 0.019 l 0 3.937 z m 2.826 -1.987 q 0 0.814 -0.21 1.391 -0.2 0.568 -0.563 0.927 -0.363 0.36 -0.869 0.53 -0.496 0.161 -1.098 0.161 -0.315 0 -0.621 -0.038 q -0.296 -0.028 -0.64 -0.104 l 0 -5.716 q 0.401 -0.085 0.754 -0.114 0.353 -0.028 0.659 -0.028 0.582 0 1.06 0.17 0.487 0.17 0.821 0.539 0.334 0.36 0.516 0.927 0.191 0.558 0.191 1.353 z" style="fill:#fff;fill-opacity:1;stroke:none"/>
  <path d="m 20 31 0 -0.989 1.031 0 0 -4.02 -1.031 0 l 0 -0.989 l 3 0 0 0.989 -1.023 0 0 4.02 1.023 0 l 0 0.989 -3 0" style="fill:#fff;fill-opacity:1;stroke:none"/>
 </g>
</svg>
